svgs/solid/film-canister.svg

<svg xmlns="http://www.w3.org/2000/svg" viewBox="0 0 576 512"><!--! Font Awesome Pro 6.0.0-alpha3 by @fontawesome - https://fontawesome.com License - https://fontawesome.com/license (Commercial License) --><path d="M544 128h-192v288h128c17.62 0 32-14.38 32-32v-32c0-17.62 14.38-32 32-32s32-14.38 32-32V160C576 142.4 561.6 128 544 128zM440 360c0 8.875-7.125 16-16 16h-16c-8.875 0-16-7.125-16-16v-16c0-8.875 7.125-16 16-16h16c8.875 0 16 7.125 16 16V360zM440 200c0 8.875-7.125 16-16 16h-16c-8.875 0-16-7.125-16-16v-16c0-8.875 7.125-16 16-16h16c8.875 0 16 7.125 16 16V200zM536 200c0 8.875-7.125 16-16 16h-16c-8.875 0-16-7.125-16-16v-16c0-8.875 7.125-16 16-16h16c8.875 0 16 7.125 16 16V200zM336 448H320V96h16C344.9 96 352 88.88 352 80v-32C352 39.12 344.9 32 336 32H256V16C256 7.125 248.9 0 240 0h-128C103.1 0 96 7.125 96 16V32H16C7.125 32 0 39.12 0 48v32C0 88.88 7.125 96 16 96H32v352H16C7.125 448 0 455.1 0 464v32C0 504.9 7.125 512 16 512h320c8.875 0 16-7.125 16-16v-32C352 455.1 344.9 448 336 448z"/></svg>

<svg xmlns="http://www.w3.org/2000/svg" viewBox="0 0 576 512"><!-- Font Awesome Pro 5.15.3 by @fontawesome - https://fontawesome.com License - https://fontawesome.com/license (Commercial License) --><path d="M544 128H352v288h128a32 32 0 0 0 32-32v-32a32 32 0 0 1 32-32 32 32 0 0 0 32-32V160a32 32 0 0 0-32-32zM440 360a16 16 0 0 1-16 16h-16a16 16 0 0 1-16-16v-16a16 16 0 0 1 16-16h16a16 16 0 0 1 16 16zm0-160a16 16 0 0 1-16 16h-16a16 16 0 0 1-16-16v-16a16 16 0 0 1 16-16h16a16 16 0 0 1 16 16zm96 0a16 16 0 0 1-16 16h-16a16 16 0 0 1-16-16v-16a16 16 0 0 1 16-16h16a16 16 0 0 1 16 16zM336 448h-16V96h16a16 16 0 0 0 16-16V48a16 16 0 0 0-16-16h-80V16a16 16 0 0 0-16-16H112a16 16 0 0 0-16 16v16H16A16 16 0 0 0 0 48v32a16 16 0 0 0 16 16h16v352H16a16 16 0 0 0-16 16v32a16 16 0 0 0 16 16h320a16 16 0 0 0 16-16v-32a16 16 0 0 0-16-16z"/></svg>
